X:1
T:God On The Mountain 
M:4/4
L:1/8
Q:1/4=22
K:Db
V:1
z4 =G,,,/2z/2=G,,,/2z/2 C,,/2C,,/2C,,/2z/2|F,,,/2z/2F,,,/2z/2 C,,/2z/2C,,/2z/2 F,,,/2z/2F,,,/2E,,/2 B,,,/2z/2B,,,/2z/2|F,,C,, F,,C,,/2z/2 C,,/2z/2C,,/2z/2 C,,/2z/2C,,/2z/2|F,,,C,, F,,,C,, F,,,/2z/2F,,,/2E,,/2 B,,,/2z/2B,,,/2z/2|
F,,,C,, F,,,C,, =G,,,/2z/2=G,,,/2z/2 C,,/2z/2C,,/2z/2|F,,,/2z/2F,,,/2z/2 F,,,/2z/2F,,,/2z/2 B,,,F,, B,,,F,,|F,,C,, F,,=E,,/2=D,,/2 C,,=G,, C,,=G,,/2z/2|F,,,/2z/2F,,,/2z/2 F,,,/2z/2F,,,/2z/2 B,,,F,, B,,,F,,|
F,,,C,, F,,,C,, =G,,,/2z/2=G,,,/2z/2 C,,/2z/2C,,/2z/2|F,,,/2z/2F,,,/2z/2 F,,,/2z/2F,,,/2z/2 F,,,/2z/2F,,,/2_E,,/2 B,,,/2z/2B,,,/2z/2|F,,C,, F,,=E,,/2=D,,/2 C,,/2z/2C,,/2z/2 C,,/2z/2C,,/2z/2|F,,,C,, F,,,C,, F,,,/2z/2F,,,/2_E,,/2 B,,,/2z/2B,,,/2z/2|
F,,C,, F,,C,,/2z/2 =G,,,/2z/2=G,,,/2z/2 C,,/2z/2C,,/2z/2|F,,,/2z/2F,,,/2z/2 F,,,/2z/2F,,,/2z/2 B,,,F,, B,,,F,,|F,,,C,, F,,,C,, C,,=G,, C,,=D,,/2=E,,/2|F,,/2z/2F,,/2z/2 F,,,/2z/2F,,,/2z/2 B,,,F,, B,,,F,,|
F,,C,, F,,C,,/2z/2 =G,,,/2z/2=G,,,/2z/2 C,,/2z/2C,,/2z/2|F,,,/2z/2F,,,/2z/2 F,,,/2z/2F,,,/2z/2 B,,,/2z/2B,,,/2z/2 B,,,/2z/2B,,,/2z/2|F,,,/2z/2F,,,/2z/2 F,,,/2z/2F,,,/2z/2 =G,,,/2z/2=G,,,/2z/2 C,,/2z/2C,,/2z/2|B,,,/2z/2B,,,/2z/2 B,,,/2z/2=A,,,/2=G,,,/2 F,,,/2z/2F,,,/2z/2 F,,2-|
F,,/2C,,/2z/2
V:2
_D,,/2z/2D,,/2z/2 D,,/2D,,/2D,,/2D,,/2 z/2z/2z/2z/2 z/2z/2z/2z/2|z/2z/2z/2z/2 z/2z/2z/2z/2 z/2z/2z/2z/2 z/2z/2z/2z/2|z/2z/2z/2z/2 z/2z/2z/2z/2 z/2z/2z/2z/2 z/2z/2z/2z/2|z/2z/2z/2z/2 z/2z/2z/2z/2 z/2z/2z/2z/2 z/2z/2z/2z/2|
z/2z/2z/2z/2 z/2z/2z/2z/2 z/2z/2z/2z/2 z/2z/2z/2z/2|z/2z/2z/2z/2 z/2z/2z/2z/2 z/2z/2z/2z/2 z/2z/2z/2z/2|z/2z/2z/2z/2 z/2z/2z/2z/2 z/2z/2z/2z/2 z/2z/2z/2z/2|z/2z/2z/2z/2 z/2z/2z/2z/2 z/2z/2z/2z/2 z/2z/2z/2z/2|
z/2z/2z/2z/2 z/2z/2z/2z/2 z/2z/2z/2z/2 z/2z/2z/2z/2|z/2z/2z/2z/2 z/2z/2z/2z/2 z/2z/2z/2z/2 z/2z/2z/2z/2|z/2z/2z/2z/2 z/2z/2z/2z/2 z/2z/2z/2z/2 z/2z/2z/2z/2|z/2z/2z/2z/2 z/2z/2z/2z/2 z/2z/2z/2z/2 z/2z/2z/2z/2|
z/2z/2z/2z/2 z/2z/2z/2z/2 z/2z/2z/2z/2 z/2z/2z/2z/2|z/2z/2z/2z/2 z/2z/2z/2z/2 z/2z/2z/2z/2 z/2z/2z/2z/2|z/2z/2z/2z/2 z/2z/2z/2z/2 z/2z/2z/2z/2 z/2z/2z/2z/2|z/2z/2z/2z/2 z/2z/2z/2z/2 z/2z/2z/2z/2 z/2z/2z/2z/2|
z/2z/2z/2z/2 z/2z/2z/2z/2 z/2z/2z/2z/2 z/2z/2z/2z/2|z/2z/2z/2z/2 z/2z/2z/2z/2 z/2z/2z/2z/2 z/2z/2z/2z/2|z/2z/2z/2z/2 z/2z/2z/2z/2 z/2z/2z/2z/2 z/2z/2z/2z/2|z/2z/2z/2z/2 z/2z/2z/2z/2 z/2z/2z/2z/2 z/2z/2z/2z/2|
z/2z/2
V:3
z4 z/2[=D/2-B,/2-][=GF=DB,] z3/2=E/2|=A/2-[=A3/2C3/2] z/2F,/2-[=G,/2-F,/2-][=D/2=G,/2F,/2] z/2=A/2z/2[_E/2B,/2=G,/2] [F2=D2B,2]|z/2=A-[=A/2-C/2-] [=A2C2=A,2] [=G=EC=A,]=E/2-[=E/2B,/2] z/2[C/2-B,/2-][=G=ECB,]|[F2-C2-=A,2-] [F/2C/2=A,/2]=A,/2-[F/2-=A,/2-][=A/2F/2=A,/2] [FC=A,][=A/2F/2C/2=A,/2]z/2 F/2-[F3/2B,3/2]|
[=A2-F2-C2-=A,2] [=A/2-F/2C/2][=A/2-=A,/2-][=A/2-C/2-=A,/2][=A/2F/2C/2] z/2[=D/2B,/2][B=G=D] =E/2-[=E3/2B,3/2]|=A/2-[=A3/2C3/2] [=A2F2_E2C2] z/2F,/2-[B,/2-F,/2-][F2-B,2-F,2-][F/2B,/2F,/2]|=A/2-[=A2-C2][=A/2-=A,/2-][=AC=A,] [=G4=E4C4B,4]|=A/2-[=A3/2C3/2] z/2F,/2-[=A,/2-F,/2-][_E/2=A,/2F,/2] [F4=D4B,4]|
z/2=A,/2-[C/2-=A,/2-][=A2-C2-=A,2-][=A/2C/2=A,/2] z/2F/2[=DB,=G,] [=G2=E2C2B,2]|z/2[C/2-=A,/2-][=AFC=A,] z/2=A,/2-[C/2-=A,/2-][=A/2C/2=A,/2] [FC=A,]z z/2[B,/2-F,/2-][F=DB,F,]|z/2[C/2-=A,/2-][=A3F3C3=A,3] [=EC=A,=G,][=G=ECB,] =E/2-[=E3/2B,3/2]|[=A2-F2-C2-=A,2] [=A/2-F/2C/2][=A/2-=A,/2-][=A/2-C/2-=A,/2][=A/2F/2C/2] z/2=A/2z/2[_E/2B,/2=G,/2] [F2=D2B,2F,2]|
[F2-C2-=A,2-] [F/2C/2=A,/2]=A,/2-[F/2-=A,/2-][=A/2F/2=A,/2] F/2-[F/2B,/2]z/2B,/2 z/2[C/2-B,/2-][=G=ECB,]|z/2=A,/2-[C/2-=A,/2-][=A/2C/2=A,/2] z/2[C/2-=A,/2-][F_EC=A,] z/2F-[F/2-B,/2-] [F2B,2F,2]|=A/2-[=A2-C2][=A/2-=A,/2-][=AC=A,] [=G4=E4C4B,4]|[=A2F2C2=A,2] z/2_E-[E/2=A,/2] [F2-=D2-B,2-] [F/2=D/2B,/2]F,/2-[=D/2-F,/2-][F/2=D/2F,/2]|
[F2-C2-=A,2-] [F/2C/2=A,/2]=A,/2-[F/2-=A,/2-][=A/2F/2=A,/2] [=AF=DB,][B=G=DB,] z/2[C/2-B,/2-][=G=ECB,]|z/2=A-[=A/2C/2] [=A2F2_E2C2] z/2[B,/2-F,/2-][F=DB,F,] [F2=D2B,2F,2]|z/2=A,/2-[C/2-=A,/2-][=A/2C/2=A,/2] =A/2-[=A3/2C3/2] F/2-[F/2B,/2]B/2-[B/2=D/2] [=E2C2B,2=G,2]|[F2=D2B,2F,2] z/2F,/2z/2[=d/2B/2=G/2F/2] z/2=A,/2-[C/2-=A,/2-][=A/2C/2=A,/2] [F2-C2-=A,2-]|
[F/2C/2=A,/2]z/2
V:4
z4 =G,,/2[=D/2-=G,/2][=D/2-=G,,/2-][=D/2B,/2=G,/2=G,,/2] [B,/2C,/2][=D/2B,/2C,/2][=D/2-B,/2C,/2-][=E/2=D/2C,/2]|F,,/2-[C/2-F,/2-C,/2F,,/2][C/2-F,/2-=A,,/2-][C/2=A,/2F,/2C,/2=A,,/2] C,/2[B,/2-F,/2][B,/2-C,/2-][B,/2=G,/2F,/2C,/2] F,,/2[C/2F,/2C,/2]F,,/2_E,,/2 B,,/2-[B,/2-F,/2=D,/2B,,/2-][B,/2-B,,/2F,,/2][B,/2F,/2=D,/2]|F,,/2-[C/2-F,/2-C,/2F,,/2][C/2-F,/2-=A,,/2-][C/2-=A,/2F,/2C,/2=A,,/2] [C/2-F,/2F,,/2-][C/2-C,/2F,,/2][C/2-F,/2-=A,,/2][C/2=A,/2F,/2C,/2] C,/2[C/2=A,/2][C/2-C,/2][C/2=E,/2] [C/2-C,/2-][C/2=G,/2C,/2][B,/2-C,/2-][=E/2B,/2=G,/2C,/2]|F,,/2-[C/2-F,/2-C,/2F,,/2][C/2-F,/2-=A,,/2-][C/2-=A,/2F,/2C,/2=A,,/2] [C/2-F,/2F,,/2-][C/2-C,/2F,,/2][C/2-F,/2-=A,,/2][C/2=A,/2F,/2C,/2] F,,/2[C/2F,/2C,/2]F,,/2E,,/2 B,,/2-[B,/2-F,/2=D,/2B,,/2-][B,/2-B,,/2F,,/2][B,/2F,/2=D,/2]|
F,,/2[C/2-F,/2-C,/2][C/2-F,/2-=A,,/2][C/2-=A,/2-F,/2-C,/2] [C/2-=A,/2-F,/2=G,,/2][C/2-=A,/2C,/2][C/2-F,/2-F,,/2-][C/2F,/2C,/2F,,/2] =G,,/2[F/2B,/2][=D/2-=G,/2][=D/2=G,,/2] C,/2[C/2-=G,/2][C/2-C,/2-][C/2B,/2=G,/2C,/2]|F,,/2[C/2-F,/2-C,/2][C/2-F,/2-=A,,/2][C/2=A,/2F,/2C,/2] F,,/2[_E/2-=A,/2-F,/2][E/2=A,/2-F,,/2][C/2=A,/2F,/2] [B,/2-F,/2-B,,/2-][B,/2-F,/2=D,/2B,,/2][B,/2F,,/2-][F,/2-=D,/2F,,/2] [B,/2-F,/2-B,,/2-][B,/2F,/2=D,/2B,,/2][F,/2-F,,/2][B,/2F,/2]|F,,/2-[C/2-=A,/2F,/2-C,/2F,,/2][C/2-F,/2-=A,,/2][C/2=A,/2F,/2C,/2] [C/2-F,/2-F,,/2-][C/2-F,/2-C,/2F,,/2][C/2-F,/2=G,,/2][C/2C,/2] [B,/2-C,/2][B,/2-=G,/2][B,/2C,/2][C/2-=G,/2] [C/2-B,/2C,/2-][C/2=G,/2C,/2][C/2-C,/2][C/2B,/2=G,/2]|F,,/2-[C/2-F,/2-C,/2F,,/2][C/2-F,/2-=A,,/2-][C/2=A,/2F,/2C,/2=A,,/2] F,,/2[C/2-F,/2][C/2-F,,/2-][C/2=A,/2F,/2F,,/2] B,,/2-[B,/2-F,/2=D,/2B,,/2-][B,/2-B,,/2F,,/2-][B,/2F,/2-=D,/2F,,/2] [=D/2-F,/2-B,,/2-][=D/2-F,/2=D,/2B,,/2][=D/2-F,/2-F,,/2][=D/2B,/2F,/2=D,/2]|
F,,/2[C/2-F,/2-C,/2][C/2-F,/2-=A,,/2][C/2-=A,/2F,/2C,/2] [C/2-F,/2F,,/2-][C/2C,/2F,,/2][F,/2-=A,,/2][C/2F,/2C,/2] =G,,/2[=D/2B,/2][=G/2-=G,,/2][=G/2B,/2] C,/2[C/2-=G,/2][C/2-C,/2-][C/2B,/2=G,/2C,/2]|F,,/2[C/2-F,/2-C,/2][C/2-F,/2-=A,,/2][C/2=A,/2F,/2C,/2] F,,/2-[C/2-=A,/2F,/2-C,/2F,,/2][C/2-F,/2-=A,,/2][C/2=A,/2F,/2C,/2] F,,/2[C/2F,/2C,/2]F,,/2E,,/2 B,,/2-[B,/2-F,/2=D,/2-B,,/2-][B,/2=D,/2B,,/2F,,/2-][F,/2=D,/2F,,/2]|F,,/2-[C/2-=A,/2F,/2-C,/2F,,/2][C/2-F,/2-=A,,/2][C/2=A,/2F,/2C,/2] [C/2-F,/2-F,,/2-][C/2-F,/2-C,/2F,,/2][C/2-F,/2=G,,/2][C/2C,/2] C,/2[C/2=A,/2][B,/2-=E,/2][B,/2C,/2] C,/2[C/2-=G,/2][C/2-=E,/2][C/2B,/2=G,/2]|F,,/2-[C/2-F,/2-C,/2F,,/2][C/2-F,/2-][C/2-=A,/2F,/2C,/2] [C/2-F,/2F,,/2-][C/2-C,/2F,,/2][C/2-F,/2-=A,,/2][C/2=A,/2F,/2] F,,/2-[C/2=A,/2F,/2C,/2F,,/2]F,,/2E,,/2 B,,/2-[B,/2-F,/2=D,/2-B,,/2-][B,/2=D,/2B,,/2F,,/2-][F,/2=D,/2F,,/2]|
F,,/2-[C/2-=A,/2F,/2-C,/2F,,/2][C/2-F,/2-=A,,/2][C/2=A,/2F,/2C,/2] [C/2-F,/2-F,,/2-][C/2-F,/2-C,/2F,,/2][C/2-F,/2=G,,/2][C/2C,/2] =G,,/2[F/2B,/2][=D/2-=G,/2][=D/2=G,,/2] C,/2[C/2-=G,/2][C/2-C,/2-][C/2B,/2=G,/2C,/2]|F,,/2[C/2-F,/2-C,/2][C/2F,/2-=A,,/2][=A,/2F,/2C,/2] F,,/2[E/2-=A,/2-F,/2][E/2=A,/2-F,,/2][C/2=A,/2F,/2] [B,/2-B,,/2-][B,/2-=D,/2B,,/2-][B,/2B,,/2F,,/2-][F,/2-=D,/2F,,/2] [=D/2-F,/2-B,,/2-][=D/2-F,/2=D,/2B,,/2-][=D/2-F,/2-B,,/2F,,/2][=D/2B,/2F,/2]|F,,/2-[C/2-F,/2-C,/2F,,/2][C/2-F,/2-=A,,/2-][C/2-=A,/2F,/2C,/2=A,,/2] [C/2-F,/2F,,/2-][C/2-C,/2F,,/2][C/2-F,/2-=A,,/2][C/2=A,/2F,/2C,/2] [C/2-B,/2C,/2-][=E/2-C/2-C,/2][=E/2-C/2-=G,/2=E,/2][=E/2-C/2B,/2] [=E/2-C/2-C,/2][=E/2-C/2-=E,/2][=E/2C/2-=G,/2C,/2][C/2B,/2]|F,,/2[C/2-F,/2-C,/2][C/2-F,/2-=A,,/2][C/2=A,/2F,/2C,/2] [C/2-F,,/2][C/2F,/2][=A,/2F,,/2][C/2F,/2] B,,/2-[B,/2-F,/2=D,/2-B,,/2-][B,/2=D,/2B,,/2F,,/2-][F,/2-=D,/2F,,/2] [B,/2-F,/2-B,,/2][B,/2-F,/2-=D,/2][B,/2F,/2C,/2][F,/2=D,/2]|
F,,/2-[C/2-=A,/2F,/2-C,/2F,,/2][C/2-F,/2-=A,,/2][C/2=A,/2F,/2C,/2] [C/2-F,/2-F,,/2-][C/2-F,/2-C,/2F,,/2][C/2-F,/2=G,,/2][C/2C,/2] [B,/2-=G,,/2][B,/2=A,/2][=D/2-=G,,/2][=D/2B,/2] C,/2[C/2-=G,/2][C/2-=E,/2][C/2B,/2=G,/2]|F,,/2-[C/2-=A,/2-F,/2-C,/2F,,/2][C/2-=A,/2-F,/2][C/2=A,/2] [C/2-F,,/2][C/2F,/2][=A,/2F,,/2][C/2F,/2] B,,/2-[B,/2-F,/2=D,/2-B,,/2-][B,/2=D,/2B,,/2F,,/2-][F,/2=D,/2F,,/2] B,,/2-[B,/2F,/2=D,/2B,,/2-][B,,/2F,,/2-][F,/2=D,/2F,,/2]|F,,/2[C/2-F,/2-C,/2][C/2-F,/2-=A,,/2][C/2=A,/2F,/2C,/2] F,,/2-[C/2-F,/2-C,/2F,,/2][C/2-F,/2-=A,,/2-][C/2=A,/2F,/2C,/2=A,,/2] [B,/2-=G,,/2][B,/2=A,/2][=G/2-=G,,/2][=G/2=G,/2] [C/2-C,/2-][C/2=G,/2C,/2][B,/2-C,/2-][=E/2B,/2=G,/2C,/2]|[B,/2-F,/2-B,,/2-][B,/2-F,/2=D,/2B,,/2][B,/2F,,/2-][F,/2=D,/2F,,/2] [B,/2-B,,/2-][B,/2=D,/2B,,/2]F,,/2=G,,/2 F,,/2[C/2-F,/2-C,/2][C/2F,/2-=A,,/2][=A,/2F,/2C,/2] [F/2C/2=A,/2F,/2-]F,/2z/2[=D/2C/2]|
z/2C/2-[C/2F,/2]
V:5
z8|z8|z8|z8|
z8|z8|z8|z8|
z8|z8|z8|z8|
z8|z8|z8|z8|
z8|z8|z8|z4 z3/2[C2-F,2-][C/2F,/2]|
z/2
